X: 3574
T:Marchioness of Huntly's favourite jig
R:Jig
C:William Marshall
O:Scotland
M:6/8
L:1/8
K:Cm
G|c2d e2c|d2b fed|c2d e2f|g2E gfe|!
d2b b=ag|fdB Bcd|e2c {e}dc=B|c3 A2:|!
D|E2C G,2E|FDB, B,2D|C2E D2F|E2G F2A|!
G2e B2G|FDB, B,2d|{d}e2c {e}dc=B|c3 C2D|!
E2C G,2E|FDB, B,2D|C2c cde|d2B, def|!
E2g gfe|dcB def|gfe dc=B|c3 C2||!
